public/library/reflex-icon-dark.svg

<svg width="64" height="64" viewBox="0 0 64 64" fill="none" xmlns="http://www.w3.org/2000/svg">
<circle cx="32" cy="32" r="32" fill="black"/>
<path d="M49.8036 33.16C50.3463 33.16 50.8095 33.0102 51.1765 32.8229C51.6397 32.5867 52.0339 32.2351 52.3343 31.8107L54.222 29.1433H52.0129L50.5324 31.1518C50.5324 31.1518 50.2238 31.5729 49.8036 31.5729C49.3837 31.5729 49.0749 31.1518 49.0749 31.1518L47.5943 29.1433H45.3853L47.2729 31.8107C47.5731 32.2351 47.9675 32.5867 48.4307 32.8229C48.7978 33.0102 49.2612 33.16 49.8036 33.16Z" fill="#A6A6FE"/>
<path d="M49.8036 34.072C49.261 34.072 48.7978 34.2218 48.4307 34.4091C47.9675 34.6453 47.5734 34.9969 47.2729 35.4213L45.3853 38.0887H47.5943L49.0749 36.0802C49.0749 36.0802 49.3834 35.6591 49.8036 35.6591C50.2236 35.6591 50.5324 36.0802 50.5324 36.0802L52.0129 38.0887H54.222L52.3343 35.4213C52.0341 34.9969 51.6397 34.6453 51.1765 34.4091C50.8095 34.2218 50.346 34.072 49.8036 34.072Z" fill="#A6A6FE"/>
<path d="M16.8004 38.1908L13.9103 33.7933H11.9064V38.1908H9.77783V25.7778H14.3183C15.0279 25.7778 15.6413 25.8844 16.1637 26.0975C16.6965 26.2976 17.1331 26.5809 17.4762 26.9474C17.8296 27.3009 18.0922 27.7271 18.2559 28.2235C18.4222 28.7069 18.5054 29.2294 18.5054 29.7829C18.5054 30.599 18.3209 31.332 17.9544 31.9817C17.5879 32.6315 17.0084 33.1045 16.2156 33.4008L19.3553 38.1882H16.803L16.8004 38.1908ZM11.9064 27.9064V31.6647H14.3183C14.9447 31.6647 15.4411 31.5113 15.8076 31.2046C16.1871 30.8979 16.3742 30.4249 16.3742 29.7855C16.3742 29.1462 16.1845 28.6732 15.8076 28.3665C15.4411 28.0598 14.9447 27.9064 14.3183 27.9064H11.9064Z" fill="white"/>
<path d="M23.5089 38.3647C22.8826 38.3647 22.3082 38.2633 21.7884 38.0632C21.2789 37.8501 20.8371 37.5538 20.4577 37.1769C20.0912 36.7975 19.8027 36.3426 19.5896 35.8124C19.3894 35.2692 19.2881 34.6663 19.2881 34.0035V33.5773C19.2881 32.9145 19.3894 32.3115 19.5896 31.7683C19.8027 31.2251 20.0912 30.7573 20.4577 30.3675C20.8371 29.9776 21.2789 29.6761 21.7884 29.463C22.3082 29.2499 22.8826 29.1433 23.5089 29.1433C24.1353 29.1433 24.7019 29.2499 25.2113 29.463C25.7311 29.6761 26.1755 29.9776 26.542 30.3675C26.9215 30.7573 27.2099 31.2251 27.4101 31.7683C27.6232 32.3115 27.7298 32.9145 27.7298 33.5773V34.2504H21.2763C21.3231 34.96 21.5363 35.5317 21.9157 35.971C22.2952 36.4076 22.8254 36.6259 23.5115 36.6259C23.9248 36.6259 24.3146 36.5428 24.6811 36.3764C25.0605 36.2101 25.3724 35.997 25.6219 35.7371L27.0228 36.9248C26.8461 37.1483 26.62 37.3511 26.3497 37.5278C26.0898 37.7045 25.8065 37.8579 25.4998 37.9878C25.1931 38.1048 24.8682 38.1958 24.5251 38.2529C24.1821 38.3231 23.8442 38.3595 23.5141 38.3595L23.5089 38.3647ZM21.3621 32.7976H25.6531C25.5362 32.231 25.2997 31.7683 24.9436 31.4149C24.5901 31.0614 24.1093 30.8821 23.5063 30.8821C22.9033 30.8821 22.4251 31.0588 22.0691 31.4149C21.7156 31.7683 21.4791 32.231 21.3595 32.7976H21.3621Z" fill="white"/>
<path d="M28.585 29.3229C28.585 28.2469 28.9098 27.3892 29.5596 26.7525C30.2224 26.1027 31.1606 25.7778 32.3796 25.7778V27.6933C31.8961 27.6933 31.4933 27.8363 31.1736 28.1196C30.8669 28.3925 30.7136 28.7927 30.7136 29.3255H32.3796V30.9915H30.7136V38.1908H28.585V29.3229Z" fill="white"/>
<path d="M35.9221 38.1908H33.7935V25.7778H35.9221V38.1908Z" fill="white"/>
<path d="M41.3405 38.3647C40.7141 38.3647 40.1397 38.2633 39.6199 38.0632C39.1105 37.8501 38.6687 37.5538 38.2892 37.1769C37.9227 36.7975 37.6342 36.3426 37.4211 35.8124C37.221 35.2692 37.1196 34.6663 37.1196 34.0035V33.5773C37.1196 32.9145 37.221 32.3115 37.4211 31.7683C37.6342 31.2251 37.9227 30.7573 38.2892 30.3675C38.6687 29.9776 39.1105 29.6761 39.6199 29.463C40.1397 29.2499 40.7141 29.1433 41.3405 29.1433C41.9668 29.1433 42.5334 29.2499 43.0428 29.463C43.5626 29.6761 44.0071 29.9776 44.3735 30.3675C44.753 30.7573 45.0415 31.2251 45.2416 31.7683C45.4547 32.3115 45.5613 32.9145 45.5613 33.5773V34.2504H39.1079C39.1547 34.96 39.3678 35.5317 39.7473 35.971C40.1267 36.4076 40.6569 36.6259 41.3431 36.6259C41.7563 36.6259 42.1462 36.5428 42.5126 36.3764C42.8921 36.2101 43.204 35.997 43.4535 35.7371L44.8544 36.9248C44.6776 37.1483 44.4515 37.3511 44.1812 37.5278C43.9213 37.7045 43.638 37.8579 43.3313 37.9878C43.0246 38.1048 42.6998 38.1958 42.3567 38.2529C42.0136 38.3231 41.6757 38.3595 41.3457 38.3595L41.3405 38.3647ZM39.1937 32.7976H43.4847C43.3651 32.231 43.1312 31.7683 42.7751 31.4149C42.4217 31.0614 41.9408 30.8821 41.3379 30.8821C40.7349 30.8821 40.2567 31.0588 39.9006 31.4149C39.5471 31.7683 39.308 32.231 39.1911 32.7976H39.1937Z" fill="white"/>
</svg>

<svg xmlns="http://www.w3.org/2000/svg" width="64" height="64" fill="none" viewBox="0 0 64 64"><circle cx="32" cy="32" r="32" fill="#000"/><path fill="#a6a6fe" d="M49.804 33.16c.542 0 1.005-.15 1.372-.337a3.2 3.2 0 0 0 1.158-1.012l1.888-2.668h-2.21l-1.48 2.009s-.308.42-.728.42-.73-.42-.73-.42l-1.48-2.009h-2.209l1.888 2.668c.3.424.694.776 1.158 1.012.367.187.83.337 1.373.337M49.804 34.072c-.543 0-1.006.15-1.373.337a3.2 3.2 0 0 0-1.158 1.012l-1.888 2.668h2.21l1.48-2.009s.308-.42.729-.42c.42 0 .728.42.728.42l1.48 2.009h2.21l-1.888-2.668a3.2 3.2 0 0 0-1.158-1.012 3 3 0 0 0-1.372-.337"/><path fill="#fff" d="m16.8 38.19-2.89-4.397h-2.004v4.398H9.778V25.778h4.54q1.063 0 1.846.32.798.3 1.312.85.532.53.78 1.276.25.726.25 1.559 0 1.224-.552 2.199-.55.975-1.738 1.419l3.14 4.787h-2.553zm-4.894-10.284v3.759h2.412q.94 0 1.49-.46.568-.46.566-1.42-.001-.959-.566-1.419-.55-.46-1.49-.46zM23.509 38.365q-.94-.001-1.72-.302a4.1 4.1 0 0 1-1.331-.886 4.2 4.2 0 0 1-.868-1.365 5.2 5.2 0 0 1-.302-1.808v-.427q0-.994.302-1.809a4.3 4.3 0 0 1 .868-1.4c.38-.39.82-.692 1.33-.905a4.5 4.5 0 0 1 1.72-.32q.94 0 1.703.32.781.32 1.331.904.569.586.868 1.401.32.815.32 1.81v.672h-6.454q.07 1.064.64 1.721.569.655 1.596.655.62 0 1.17-.25.567-.249.94-.639l1.4 1.188a2.8 2.8 0 0 1-.672.603q-.39.265-.85.46a5 5 0 0 1-.975.265q-.515.105-1.01.106zm-2.147-5.567h4.291q-.175-.852-.71-1.383-.531-.532-1.437-.533-.903 0-1.437.533-.53.531-.71 1.383zM28.585 29.323q0-1.615.975-2.57.992-.975 2.82-.975v1.915q-.727 0-1.206.427-.46.407-.46 1.206h1.666v1.665h-1.666v7.2h-2.129zM35.922 38.19h-2.128V25.779h2.128zM41.34 38.365q-.94-.001-1.72-.302a4.1 4.1 0 0 1-1.33-.886 4.2 4.2 0 0 1-.869-1.365 5.2 5.2 0 0 1-.301-1.808v-.427a5.2 5.2 0 0 1 .301-1.809 4.3 4.3 0 0 1 .868-1.4q.569-.585 1.33-.905a4.5 4.5 0 0 1 1.721-.32q.94 0 1.703.32.78.32 1.33.904.57.586.869 1.401.32.815.32 1.81v.672h-6.454q.07 1.064.64 1.721.567.655 1.595.655.62 0 1.17-.25.568-.249.94-.639l1.401 1.188a2.8 2.8 0 0 1-.673.603q-.39.265-.85.46a5 5 0 0 1-.974.265q-.515.105-1.011.106zm-2.146-5.567h4.29q-.177-.852-.709-1.383-.531-.532-1.437-.533-.904 0-1.437.533-.533.531-.71 1.383z"/></svg>
